public/images/hashed/412b0684dee8dcd8dd11a96b880b67b6.svg

<?xml version="1.0" encoding="UTF-8"?>
<svg width="80px" height="80px" viewBox="0 0 80 80" version="1.1" xmlns="http://www.w3.org/2000/svg" xmlns:xlink="http://www.w3.org/1999/xlink">
    <!-- Generator: Sketch 64 (93537) - https://sketch.com -->
    <title>Icon-Architecture/64/Arch_Amazon-Elastic-Transcoder_64</title>
    <desc>Created with Sketch.</desc>
    <defs>
        <linearGradient x1="0%" y1="100%" x2="100%" y2="0%" id="linearGradient-1">
            <stop stop-color="#C8511B" offset="0%"></stop>
            <stop stop-color="#FF9900" offset="100%"></stop>
        </linearGradient>
    </defs>
    <g id="Icon-Architecture/64/Arch_Amazon-Elastic-Transcoder_64" stroke="none" stroke-width="1" fill="none" fill-rule="evenodd">
        <g id="Icon-Architecture-BG/64/Media-Services" fill="url(#linearGradient-1)">
            <rect id="Rectangle" x="0" y="0" width="80" height="80"></rect>
        </g>
        <path d="M14.797,33.5288573 C14.787,33.3453824 14.783,33.1538427 14.783,32.9582705 C14.783,27.2181271 18.566,25.0315498 20.877,24.2321235 C20.864,24.0002596 20.859,23.7673876 20.859,23.5355237 C20.859,18.7813059 24.016,13.8486536 28.202,12.0612855 C33.102,9.96846186 38.298,11.0088251 42.093,14.8466765 C43.223,15.9888582 44.156,17.3639118 44.88,18.947643 C46.284,17.8478017 48.092,17.4637141 49.819,17.9748228 C52.248,18.6895684 53.882,20.9144536 54.275,23.9881623 C55.672,24.3369663 57.988,25.1898221 59.647,27.177803 C59.28,27.1425193 58.91,27.1213492 58.535,27.1213492 C57.945,27.1213492 57.371,27.1808273 56.805,27.2675242 C55.477,26.3350281 54.001,25.9559811 53.159,25.809806 C52.629,25.7180686 52.268,25.2220815 52.336,24.6867783 C52.142,22.2038185 50.996,20.4214909 49.259,19.9093741 C47.823,19.4869786 46.279,20.0495005 45.33,21.3459221 C45.11,21.645329 44.74,21.7975526 44.378,21.7441231 C44.012,21.6886774 43.706,21.4346352 43.583,21.082807 C42.907,19.1563205 41.93,17.5373057 40.677,16.2701191 C39.14,14.7166311 34.928,11.3798073 28.982,13.9182128 C25.548,15.3839958 22.859,19.607951 22.859,23.5355237 C22.859,23.9669922 22.883,24.3984606 22.933,24.8188399 C22.939,24.8662208 22.943,24.9136017 22.943,24.9619907 C22.943,25.4468886 22.603,25.8561788 22.144,25.9509406 C20.119,26.4842275 16.783,28.1012261 16.783,32.9582705 C16.783,33.1185591 16.787,33.2748152 16.795,33.428047 C16.861,34.8121736 17.329,36.1106113 18.126,37.2023878 L15.789,37.2023878 C15.211,36.0773439 14.859,34.8353599 14.797,33.5288573 L14.797,33.5288573 Z M56.958,61.5299503 L56.958,56.974329 L61.155,59.2526437 L56.958,61.5299503 Z M56.432,54.3986236 C56.123,54.2302702 55.747,54.2393432 55.445,54.4208019 C55.143,54.6022606 54.958,54.9309024 54.958,55.2867631 L54.958,63.2185243 C54.958,63.5733769 55.143,63.9020187 55.445,64.0834774 C55.603,64.1782392 55.78,64.2266282 55.958,64.2266282 C56.121,64.2266282 56.284,64.186304 56.432,64.1056557 L63.738,60.1397751 C64.063,59.964365 64.265,59.6226178 64.265,59.2526437 C64.265,58.8816615 64.063,58.5409224 63.738,58.3645042 L56.432,54.3986236 Z M58.535,66.9837923 C54.419,66.9837923 51.069,63.6076524 51.069,59.4582969 C51.069,55.3079333 54.419,51.9317934 58.535,51.9317934 C62.651,51.9317934 66,55.3079333 66,59.4582969 C66,63.6076524 62.651,66.9837923 58.535,66.9837923 L58.535,66.9837923 Z M14,58.372569 L33,58.372569 L33,41.2348033 L14,41.2348033 L14,58.372569 Z M58.535,31.1537646 C62.651,31.1537646 66,34.5299045 66,38.67926 C66,42.8296236 62.651,46.2057635 58.535,46.2057635 C54.419,46.2057635 51.069,42.8296236 51.069,38.67926 C51.069,34.5299045 54.419,31.1537646 58.535,31.1537646 L58.535,31.1537646 Z M58.535,49.9155857 C53.763,49.9155857 49.815,53.4983868 49.172,58.1326403 L35,52.4489507 L35,47.7945352 L49.687,42.0392702 C51.039,45.6462658 54.49,48.2219712 58.535,48.2219712 C63.754,48.2219712 68,43.9415622 68,38.67926 C68,33.4179659 63.754,29.1375569 58.535,29.1375569 C53.316,29.1375569 49.069,33.4179659 49.069,38.67926 C49.069,39.155085 49.115,39.6178047 49.182,40.0744757 L35,45.6311443 L35,40.2266994 C35,39.6702261 34.553,39.2185956 34,39.2185956 L13,39.2185956 C12.447,39.2185956 12,39.6702261 12,40.2266994 L12,59.3806729 C12,59.9371462 12.447,60.3887768 13,60.3887768 L34,60.3887768 C34.553,60.3887768 35,59.9371462 35,59.3806729 L35,54.6183902 L49.11,60.2788934 C49.526,65.1571081 53.59,69 58.535,69 C63.754,69 68,64.719591 68,59.4582969 C68,54.1959947 63.754,49.9155857 58.535,49.9155857 L58.535,49.9155857 Z M56.958,36.5763553 L61.155,38.8546701 L56.958,41.1329848 L56.958,36.5763553 Z M55.445,43.6865119 C55.603,43.7812737 55.78,43.8286545 55.958,43.8286545 C56.121,43.8286545 56.284,43.7893385 56.432,43.7086902 L63.738,39.7428096 C64.063,39.5663914 64.265,39.2256523 64.265,38.8546701 C64.265,38.4846959 64.063,38.1429487 63.738,37.9675387 L56.432,34.0006499 C56.123,33.8322966 55.747,33.8413695 55.445,34.0228282 C55.143,34.2042869 54.958,34.5339369 54.958,34.8887895 L54.958,42.8205507 C54.958,43.1754032 55.143,43.5050532 55.445,43.6865119 L55.445,43.6865119 Z M21,46.9809953 L26.762,50.2069277 L21,52.7886817 L21,46.9809953 Z M19.455,55.1849446 C19.62,55.2928117 19.81,55.3482574 20,55.3482574 C20.138,55.3482574 20.276,55.3200305 20.406,55.2615605 L29.406,51.229145 C29.753,51.073897 29.983,50.734166 29.999,50.3520947 C30.016,49.9710314 29.818,49.6121464 29.485,49.4266553 L20.485,44.386136 C20.177,44.2127421 19.798,44.2177826 19.493,44.3982332 C19.188,44.5796919 19,44.91035 19,45.2672188 L19,54.3401536 C19,54.6808927 19.171,54.9994535 19.455,55.1849446 L19.455,55.1849446 Z" id="Amazon-Elastic-Transcoder_Icon_64_Squid" fill="#FFFFFF"></path>
    </g>
</svg>

<svg xmlns="http://www.w3.org/2000/svg" width="80" height="80"><defs><linearGradient id="a" x1="0%" x2="100%" y1="100%" y2="0%"><stop offset="0%" stop-color="#C8511B"/><stop offset="100%" stop-color="#F90"/></linearGradient></defs><g fill="none" fill-rule="evenodd"><path fill="url(#a)" d="M0 0h80v80H0z"/><path fill="#FFF" d="M14.797 33.529c-.01-.184-.014-.375-.014-.57 0-5.74 3.783-7.927 6.094-8.727a12.457 12.457 0 0 1-.018-.696c0-4.755 3.157-9.687 7.343-11.475 4.9-2.093 10.096-1.052 13.891 2.786 1.13 1.142 2.063 2.517 2.787 4.1 1.404-1.1 3.212-1.483 4.939-.972 2.429.715 4.063 2.94 4.456 6.013 1.397.349 3.713 1.202 5.372 3.19a11.6 11.6 0 0 0-1.112-.057c-.59 0-1.164.06-1.73.147-1.328-.933-2.804-1.312-3.646-1.458a1.007 1.007 0 0 1-.823-1.123c-.194-2.483-1.34-4.266-3.077-4.778-1.436-.422-2.98.14-3.929 1.437-.22.3-.59.452-.952.398a1.002 1.002 0 0 1-.795-.661c-.676-1.927-1.653-3.546-2.906-4.813-1.537-1.553-5.749-4.89-11.695-2.352-3.434 1.466-6.123 5.69-6.123 9.618 0 .431.024.862.074 1.283a1.008 1.008 0 0 1-.789 1.132c-2.025.533-5.361 2.15-5.361 7.007 0 .16.004.317.012.47a6.935 6.935 0 0 0 1.331 3.774h-2.337a8.95 8.95 0 0 1-.992-3.673ZM56.958 61.53v-4.556l4.197 2.279-4.197 2.277Zm-.526-7.131a.994.994 0 0 0-.987.022c-.302.181-.487.51-.487.866v7.932a1.008 1.008 0 0 0 1 1.008.99.99 0 0 0 .474-.121l7.306-3.966a1.01 1.01 0 0 0 0-1.775l-7.306-3.966Zm2.103 12.585c-4.116 0-7.466-3.376-7.466-7.526s3.35-7.526 7.466-7.526S66 55.308 66 59.458s-3.349 7.526-7.465 7.526ZM14 58.373h19V41.235H14v17.138Zm44.535-27.22c4.116 0 7.465 3.377 7.465 7.526 0 4.15-3.349 7.527-7.465 7.527s-7.466-3.376-7.466-7.527c0-4.15 3.35-7.525 7.466-7.525Zm0 18.763c-4.772 0-8.72 3.582-9.363 8.217L35 52.449v-4.654l14.687-5.756c1.352 3.607 4.803 6.183 8.848 6.183 5.219 0 9.465-4.28 9.465-9.543 0-5.261-4.246-9.541-9.465-9.541-5.219 0-9.466 4.28-9.466 9.541 0 .476.046.939.113 1.395L35 45.631v-5.404c0-.557-.447-1.008-1-1.008H13c-.553 0-1 .451-1 1.008V59.38c0 .556.447 1.008 1 1.008h21c.553 0 1-.452 1-1.008v-4.763l14.11 5.66c.416 4.88 4.48 8.722 9.425 8.722C63.754 69 68 64.72 68 59.458s-4.246-9.542-9.465-9.542Zm-1.577-13.34 4.197 2.279-4.197 2.278v-4.557Zm-1.513 7.11a.995.995 0 0 0 .987.023l7.306-3.966a1.01 1.01 0 0 0 0-1.775L56.432 34a.994.994 0 0 0-.987.022 1.01 1.01 0 0 0-.487.866v7.932c0 .354.185.684.487.866ZM21 46.982l5.762 3.226L21 52.789V46.98Zm-1.545 8.204a.997.997 0 0 0 .951.077l9-4.033c.347-.155.577-.495.593-.877a1.007 1.007 0 0 0-.514-.925l-9-5.04a.993.993 0 0 0-.992.011 1.012 1.012 0 0 0-.493.87v9.072c0 .34.171.66.455.845Z"/></g></svg>
